X:1
T:Brown Girl
M:4/4
L:1/8
K:C
 E2| G2 GE G2 AG| E2 D3/2 D/2 C3 G| cc Bc d2 ed| cc eB G3 G| c2 Bc d2 ed|\
 c2 cG A2 GE| G2 GE G2 AG| E2 D3/2 D/2 C3||
